X:19 
T:Variation no. 19 
C:J.S. Bach 
V:3 bass 
L:1/16 
Q:300 
M:3/8 
K:G 
[V:1] d2d4-|d2d4-|d2d2^c2|d4z2|gfgdBd| 
[V:2] BABGDG|AGAFDF|GFGBAG|FEFGAF|G2G4-| 
[V:3] G,2G,,2G,2|F,2F,,2F,2|E,2E,,2E,2|D,2D,,2=C,2|B,,2B,2G,2| 
% 
[V:1] edecAc|dcdedc|BABcBA|G2g4-|g2f4-|f2e2d2| 
[V:2] G2G4-|G2G2F2|G4z2|z4d2|^c4=c2|B2E2^G2| 
[V:3] C2C,2C2|B,A,B,CD2|G,2G,,D,G,A,|B,A,B,G,D,G,|A,G,A,F,D,F,|G,F,G,E,B,,E,| 
% 
[V:1] ^cde4-|e2d2=c2-|c2B2g2-|gefde^c|d6 :| 
[V:2] A4=G2|F4A2|D2G2B2|^c2A2G2-|G2F4 :| 
[V:3] =G,F,G,E,^C,E,|A,G,A,F,D,F,|B,A,B,G,E,G,|A,2A,,2A,2|D^CDA,F,D, :| 
% 
[V:1] |:fefdAd|gfgdBd|e^degfe|^defdBd|e2e4-| 
[V:2] |:D2D4-|D2B,2G2-|G2G2c2|F2z4|BABGEG| 
[V:3] |:D2D,2=C2|B,2G,2B,2|C2B,2A,2|B,2A,G,A,F,|G,2E,2G,2| 
% 
[V:1] e2e4|e2e2^d2|e4z2|z2ecAc|d6-|d2cBc2-| 
[V:2] cBcAFA|BABcBA|GFGABG|E4z2|z2DGBG|E6| 
[V:3] A,2A,,2A,2|G,F,G,A,B,2|E,2E2=D2|CB,CA,F,A,|B,A,B,G,E,G,|A,G,A,CE,G,| 
% 
[V:1] c2dcBA|dcdBGB|edecAc|fefadf|gfgdBG :| 
[V:2] D2z4|[K:bass]G,2G,4-|G,2C,2C2-|C2A,2C2-|C2B,4  [K:treble]:| 
[V:3] F,E,F,A,D,F,|B,,2G,,2B,,2|C,2A,,2C,2|D,2C,2D,2|G,6 :|
